X:24
T:L'amor a la bic\`ota
T:L'amour olo bicetto
R:misc
H:See also #23. Original key C
D:Aligot \'El\'ements
O:Auvergne, France
Z:id:hn-misc-24
M:2/4
L:1/8
K:D
D/E/F/G/ AA | G/A/B/G/ AF | E/F/G/E/ F/G/A/D/ | C/D/E/D/ CA, |
D/E/F/G/ AA | G/A/B/G/ AF | E/F/G/E/ F/G/A/D/ |1 C/D/E/C/ DA, :|2 C/D/E/C/ D2 ||
|: E/F/G/E/ F/G/A/D/ | C/D/E/D/ CA, |
E/F/G/E/ F/G/A/D/ |1 C/D/E/C/ DD :|2 C/D/E/C/ DA, ||
P:variations
|: D/E/F/G/ AA | G/A/B/G/ AF | E/F/G F/G/A | C/D/E/D/ CB,/A,/ |
D/E/F/G/ AA | G/A/B/G/ AF | E/F/G/E/ F/G/A/D/ |1 C/D/E/C/ DA, :|2 C/D/E/C/ D2 ||
|: E/F/G/E/ F/G/A/D/ | C/D/E/D/ C/B,/A, |
E/F/G/E/ F/G/A/D/ |1 C/D/E/C/ DD :|2 C/D/E/C/ DA, ||

